src/like-solid.svg

<svg viewBox="0 0 16 16" fill="currentColor" xmlns="http://www.w3.org/2000/svg"><title>Heart filled</title><path d="M3.38 2.37C3.88553 2.12707 4.43912 2.00063 5 2c.94512.00282 1.85491.35959 2.55 1l.46.45c.16-.15.31-.31.48-.45.67906-.64039 1.5766-.99798 2.51-1h.08c.7827.01789 1.5413.2746 2.174.73573.6327.46112 1.1093 1.10463 1.366 1.84427.2025.52969.262 1.10337.1725 1.66334-.0896.55997-.3249 1.0865-.6825 1.52666-.2732.35349-.5706.68763-.89 1L8 14 2.37 8.33c-.58791-.58581-.99418-1.3289-1.17-2.14-.06347-.3626-.0464-.73473.05-1.09.10708-.59364.35693-1.15234.728-1.62794.37106-.47559.85222-.85381 1.402-1.10206Z"/></svg>

<svg viewBox="0 0 16 16" fill="none" xmlns="http://www.w3.org/2000/svg"><path d="M3.38 2.37C3.88553 2.12707 4.43912 2.00063 5 2C5.94512 2.00282 6.85491 2.35959 7.55 3L8.01 3.45C8.17 3.3 8.32 3.14 8.49 3C9.16906 2.35961 10.0666 2.00202 11 2H11.08C11.8627 2.01789 12.6213 2.2746 13.254 2.73573C13.8867 3.19685 14.3633 3.84036 14.62 4.58C14.8225 5.10969 14.882 5.68337 14.7925 6.24334C14.7029 6.80331 14.4676 7.32984 14.11 7.77C13.8368 8.12349 13.5394 8.45763 13.22 8.77L8 14L2.37 8.33C1.78209 7.74419 1.37582 7.0011 1.2 6.19C1.13653 5.8274 1.1536 5.45527 1.25 5.1C1.35708 4.50636 1.60693 3.94766 1.978 3.47206C2.34906 2.99647 2.83022 2.61825 3.38 2.37Z" fill="#111111"/></svg>
